casedrop/img/icons/media/tiktok.svg

<svg width="16" height="16" viewBox="0 0 16 16" fill="none" xmlns="http://www.w3.org/2000/svg">
<g clip-path="url(#clip0_35_5799)">
<path d="M8.32226 0.648507C9.12615 0.636231 9.92414 0.642614 10.7216 0.63623C10.7482 1.6336 11.1528 2.53128 11.7966 3.19619L11.7956 3.1952C12.4885 3.81936 13.3901 4.224 14.384 4.29275L14.3978 4.29373V6.76677C13.4589 6.7432 12.5759 6.52663 11.7799 6.1544L11.8202 6.1711C11.4352 5.98596 11.1096 5.79592 10.8002 5.58378L10.8257 5.60047C10.8199 7.39239 10.8316 9.18431 10.8135 10.9698C10.7629 11.8798 10.4604 12.7097 9.97521 13.4026L9.98503 13.3874C9.17378 14.5493 7.85967 15.3119 6.36534 15.3571H6.35847C6.29807 15.36 6.22686 15.3615 6.15517 15.3615C5.30561 15.3615 4.51155 15.1248 3.83485 14.7138L3.8545 14.7251C2.62289 13.984 1.77334 12.7161 1.61619 11.2414L1.61423 11.2213C1.60195 10.9144 1.59606 10.6074 1.60834 10.3069C1.84896 7.96007 3.81521 6.14458 6.20526 6.14458C6.47387 6.14458 6.73709 6.16766 6.99293 6.21136L6.96543 6.20744C6.97771 7.11543 6.94088 8.02391 6.94088 8.9319C6.73316 8.85677 6.49351 8.81306 6.24356 8.81306C5.32624 8.81306 4.54592 9.3994 4.25717 10.218L4.25276 10.2327C4.18744 10.4424 4.14963 10.6836 4.14963 10.933C4.14963 11.0342 4.15601 11.1344 4.1678 11.2326L4.16682 11.2208C4.32985 12.2255 5.19119 12.9837 6.22981 12.9837C6.25976 12.9837 6.28923 12.9832 6.31869 12.9818H6.31427C7.03271 12.9602 7.65637 12.5737 8.00896 12.0026L8.01387 11.9937C8.14499 11.8111 8.23485 11.5901 8.26481 11.3499L8.2653 11.3431C8.32668 10.2445 8.30213 9.15239 8.30802 8.05386C8.31392 5.58083 8.30213 3.11369 8.3203 0.647034L8.32226 0.648507Z" fill="#393F4F"/>
</g>
<defs>
<clipPath id="clip0_35_5799">
<rect width="15.7143" height="15.7143" fill="white" transform="translate(0.143066 0.143066)"/>
</clipPath>
</defs>
</svg>

<svg width="16" height="16" fill="none" xmlns="http://www.w3.org/2000/svg"><g clip-path="url(#clip0_35_5799)"><path d="M8.322.649c.804-.013 1.602-.006 2.4-.013a3.812 3.812 0 001.075 2.56h-.001a4.307 4.307 0 002.588 1.097h.014v2.474a6.544 6.544 0 01-2.618-.613l.04.017a7.558 7.558 0 01-1.02-.587l.026.016c-.006 1.792.006 3.584-.013 5.37-.05.91-.353 1.74-.838 2.433l.01-.016a4.574 4.574 0 01-3.62 1.97h-.007a4.455 4.455 0 01-2.524-.643l.02.011a4.638 4.638 0 01-2.238-3.484l-.002-.02a11.372 11.372 0 01-.006-.914A4.625 4.625 0 016.993 6.21l-.028-.004c.013.908-.024 1.817-.024 2.725a2.106 2.106 0 00-2.684 1.286l-.004.015a2.383 2.383 0 00-.085 1l-.001-.012a2.092 2.092 0 002.152 1.76h-.005a2.061 2.061 0 001.695-.978l.005-.01c.131-.182.22-.403.25-.643l.001-.007c.062-1.098.037-2.19.043-3.29.006-2.472-.006-4.94.012-7.406l.002.002z" fill="#393F4F"/></g><defs><clipPath id="clip0_35_5799"><path fill="#fff" transform="translate(.143 .143)" d="M0 0h15.714v15.714H0z"/></clipPath></defs></svg>
